X:1820
T:Paddy Carey
M:6/8
L:1/8
B:O'Neill's 1820
Z:"Transcribed by Bob Safranek, rjs@gsp.org"
K:D
A2 d edcd|f2 d edcd|B2 e e2 f|gfe dcB|
A2 d edcd|f2 d edcd|ecA   ABc|def e2 d :|
|: d2 f   g2 b|a2 b    afd|d2 e g2 b|afd e2 d|
d2 f   g2 b|a2 b    afd|ecA   ABc|def e2 d :|
|: g2 e fede|f2 d edcd|ecA   ABc|def e2 d|
g2 e fede|f2 d edcd|ecA   ABc|def e2 d :|
